X: 4
T: Scottish Quadrille Set - Part 4
T: 2x(ABBCC+DEEFF)
%
P: Behind the Haystack
R: jig
Z: 2006 John Chambers <jc:trillian.mit.edu>
S: handwritten MS dated 6/92
M: 6/8
L: 1/8
K: D
   A "A"| "D"d2e fdB | d2e fdB | "A7"AFE    E3  | AFE E2A \
        | "D"d2e fdB | d2e fdB | "A7"AFD "D"D2B | AFD D2 |]
|: A "B"| "G"B3 BAF | "A7"ABc "Bm"d2B | "A7"AFE    E3  | AFE E2A \
        | "G"B3 BAF | "A7"ABc "Bm"d2B | "A7"AFD "D"D2B | AFD D2 :|
|: f "C"| "G"gag "D"fgf | "Em"ede "Bm"fdB | "A7"AFE    E3  | AFE E2f \
        | "G"gag "D"fgf | "Em"ede "Bm"fdB | "A7"AFD "D"D2B |     AFD D2 :|
%
P: Merrily Kiss the Quaker's Wife
O: Eire
Z: John Chambers <jc:trillian.mit.edu>
M: 6/8
L: 1/8
K: G
  zD "D"| "G"GAB D2B | "C"c2A AGE | "G"GAB DEG | "D"A3 AGE \
        | "G"GAB DED | "C"c2A AGE | "G"GAB "D7"D2E | "G"G3 z |]
|:zA "E"| "G"BGG AGG | BGG "C"AGE | "G"GAB DEG | "D"A3 AGA \
        | "G"BGG AGG | BGG "C"AGE | "G"GAB "D7"D2E | "G"G3 z :|
|:Bd "F"| "G"g3 "D7"a3 | "G"bge dBd | g2g gab | "D"a3- agf \
        | "C"gag "D7"fgf | "C"efe "D7"dBA | "G"GAB "D7"D2E | "G"G3 z :|

%%page

